X: 129
T: No_213_the_Unsuccessful_Hunter.krn
N: Derived from No_213_the_Unsuccessful_Hunter.krn
%%abc-version 2.0
%%abcx-abcm2ps-target-version 5.9.1 (29 Sep 2008)
%%abc-creator hum2abc beta
%%abcx-conversion-date 2019/03/15 08:38:45
%%humdrum-veritas 3435391095
%%humdrum-veritas-data 1011259363
%%linebreak <none>
%%barnumbers 0
L: 1/8
M: 3/4
K: F clef=bass
[K:clef=bass][M:3/4]F,2C2CA, | 
(CA,)A,3F, ||  
[M:2/4]F,A, A,F, | 
(F,C,)C,2 ||  
[M:3/4]D,D, D,D, (D,C,) ||  
[M:2/4]F,4 | 
A,A, A,F, | 
(F,C,)C,2 | 
CC CA, ||  
[M:3/4](CA,)(A,3F,) ||  
[M:2/4]F,A, A,F, | 
(F,C,)C,2 ||  
[M:3/4]D,D, D,D, (D,C,) ||  
[M:2/4]F,4 | 
A,A, A,F, ||  
[M:3/4](F,C,)C,2z2 ]|:  
[M:2/4]F,/F,3/ F,/F,3/ | 
F,2A,2 ||  
[M:3/4]F,2F,/F,3/A,2 ||  
[M:2/4]F,F, F,F, | 
F,2A,2 ||  
[M:3/4]F,3/F,/ F, z F,F, ||  
[M:4/4]A,4F,F,C,2 ||  
[M:3/4]D,D, D,D, (D,C,) ||  
[M:2/4]F,4 | 
A,A, A,F, | 
(F,C,) C, z | 
CC CA, ||  
[M:3/4](CA,)A,3F, ||  
[M:2/4]F,A, A,F, | 
(F,C,)C,2 ||  
[M:3/4]D,D, D,D, (D,C,) ||  
[M:2/4]F,4 | 
A,A, A,F, ||  
[M:3/4](F,C,)C,4 :|]  
[M:3/4](F,C,)C,2A,F, [I:setbarnb 37]||  
[M:2/4]A,3C, | 
C,/C,/C, D,C, |]  



